X: 671
T: Da suanzao
L: 1/8
M: 2/4
K: D
A B/ A/F2 [I:setbarnb 1]| 
d f e f | 
d d B A | 
F4 | 
d ef2 | 
f e/ d/A2 | 
d d B F | 
A4 |]

@@@ Tune index: 9545
